Numix/48/emotes/face-cool.svg

<?xml version="1.0" encoding="UTF-8" standalone="no"?>
<!-- Created with Inkscape (http://www.inkscape.org/) -->

<svg
   xmlns:dc="http://purl.org/dc/elements/1.1/"
   xmlns:cc="http://creativecommons.org/ns#"
   xmlns:rdf="http://www.w3.org/1999/02/22-rdf-syntax-ns#"
   xmlns:svg="http://www.w3.org/2000/svg"
   xmlns="http://www.w3.org/2000/svg"
   xmlns:sodipodi="http://sodipodi.sourceforge.net/DTD/sodipodi-0.dtd"
   xmlns:inkscape="http://www.inkscape.org/namespaces/inkscape"
   version="1.1"
   width="48"
   height="48"
   id="svg4876"
   inkscape:version="0.91 r"
   sodipodi:docname="face-cool.svg"
   inkscape:export-filename="/home/andreas/Diverses/numix-icon-theme/Numix/48/emotes/face-angel.svg.png"
   inkscape:export-xdpi="480"
   inkscape:export-ydpi="480">
  <sodipodi:namedview
     pagecolor="#ffffff"
     bordercolor="#666666"
     borderopacity="1"
     objecttolerance="10"
     gridtolerance="10"
     guidetolerance="10"
     inkscape:pageopacity="0"
     inkscape:pageshadow="2"
     inkscape:window-width="1920"
     inkscape:window-height="1056"
     id="namedview27"
     showgrid="true"
     inkscape:zoom="32.000001"
     inkscape:cx="24.315382"
     inkscape:cy="22.987676"
     inkscape:window-x="0"
     inkscape:window-y="24"
     inkscape:window-maximized="1"
     inkscape:current-layer="svg4876"
     showguides="true">
    <inkscape:grid
       type="xygrid"
       id="grid4164" />
  </sodipodi:namedview>
  <defs
     id="defs4878" />
  <metadata
     id="metadata4881">
    <rdf:RDF>
      <cc:Work
         rdf:about="">
        <dc:format>image/svg+xml</dc:format>
        <dc:type
           rdf:resource="http://purl.org/dc/dcmitype/StillImage" />
        <dc:title />
      </cc:Work>
    </rdf:RDF>
  </metadata>
  <path
     style="color:#000000;display:inline;overflow:visible;visibility:visible;fill:#ffda5e;fill-opacity:1;fill-rule:nonzero;stroke:none;stroke-width:0.91071427;marker:none;enable-background:accumulate"
     id="path3009-1-5-0-2-1-3"
     inkscape:connector-curvature="0"
     d="m 42,24.001634 a 18,15.5 0 0 1 -35.9999998,0 18,15.5 0 1 1 35.9999998,0 z" />
  <path
     style="opacity:1;fill:#656565;fill-opacity:1;fill-rule:nonzero;stroke:none;stroke-width:1;stroke-linecap:square;stroke-linejoin:miter;stroke-miterlimit:4;stroke-dasharray:none;stroke-dashoffset:0;stroke-opacity:1"
     d="M 29.931641,28 A 6,3.5 0 0 1 24,31 l 0,2 c 3.41293,-0.0032 6.325711,-2.115546 6.894531,-5 l -0.96289,0 z"
     id="path4150"
     inkscape:connector-curvature="0" />
  <path
     style="fill:#033243"
     d="M 16.152344 15.822266 C 15.125151 15.826966 14.46767 15.895744 14.460938 15.896484 C 14.439177 15.898284 12.160722 16.095928 10.962891 17.142578 C 10.240458 17.773768 10.135008 18.714209 10.130859 18.753906 C 10.130306 18.757506 10.052012 19.310682 10.076172 20.498047 C 10.107202 22.021939 10.7398 23.126744 10.894531 23.318359 C 10.914031 23.342519 10.935018 23.37162 10.960938 23.40625 C 11.315539 23.87925 12.396076 25.318359 16.144531 25.318359 C 19.489698 25.318359 20.549193 23.968846 20.613281 23.882812 C 20.674776 23.816836 21.983969 22.369627 22.410156 20 L 25.589844 20 C 26.016031 22.369627 27.325219 23.816838 27.386719 23.882812 C 27.450809 23.968843 28.510302 25.318359 31.855469 25.318359 C 35.603924 25.318359 36.684461 23.87925 37.039062 23.40625 C 37.064973 23.37162 37.085959 23.342519 37.105469 23.318359 C 37.2602 23.126744 37.892799 22.021939 37.923828 20.498047 C 37.947988 19.310682 37.869701 18.757503 37.869141 18.753906 C 37.865041 18.714206 37.759542 17.773768 37.037109 17.142578 C 35.839278 16.095928 33.560825 15.898236 33.539062 15.896484 C 33.532362 15.895746 32.874849 15.826926 31.847656 15.822266 L 31.708984 15.822266 C 31.485555 15.823095 30.379535 15.834266 29.183594 15.974609 C 29.037669 15.991719 28.896654 16.009887 28.759766 16.029297 L 28.203125 16.119141 C 27.21148 16.301213 26.51307 16.558566 26.119141 16.884766 C 25.637104 17.283997 25.537174 17.827149 25.517578 18 L 22.482422 18 C 22.462822 17.827149 22.362896 17.283997 21.880859 16.884766 C 21.48693 16.558566 20.78852 16.301213 19.796875 16.119141 L 19.240234 16.029297 C 19.103346 16.009887 18.962331 15.991719 18.816406 15.974609 C 17.620464 15.834263 16.514445 15.823096 16.291016 15.822266 L 16.152344 15.822266 z "
     id="path4149" />
  <g
     transform="matrix(-0.04610589,0,0,0.04610589,82.522342,13.194061)"
     id="g4169">
    <g
       id="g4171">
      <g
         id="g4173" />
    </g>
  </g>
</svg>

<!-- Created with Inkscape (http://www.inkscape.org/) -->
<svg xmlns="http://www.w3.org/2000/svg" viewBox="0 0 48 48">
 <path d="m 42 24 a 18 15.5 0 0 1 -36 0 18 15.5 0 1 1 36 0 z" style="visibility:visible;fill:#ffda5e;fill-opacity:1;stroke:none;display:inline;color:#000;fill-rule:nonzero"/>
 <path d="M 29.932 28 A 6 3.5 0 0 1 24 31 l 0 2 c 3.413 -0.003 6.326 -2.116 6.895 -5 l -0.963 0 z" style="fill:#656565;opacity:1;fill-opacity:1;stroke:none;fill-rule:nonzero"/>
 <path d="m 16.15 15.822 c -1.027 0.005 -1.685 0.073 -1.691 0.074 c -0.022 0.002 -2.3 0.199 -3.498 1.246 c -0.722 0.631 -0.828 1.572 -0.832 1.611 c -0.001 0.004 -0.079 0.557 -0.055 1.744 c 0.031 1.524 0.664 2.629 0.818 2.82 c 0.019 0.024 0.04 0.053 0.066 0.088 c 0.355 0.473 1.435 1.912 5.184 1.912 c 3.345 0 4.405 -1.35 4.469 -1.436 c 0.061 -0.066 1.371 -1.513 1.797 -3.883 l 3.18 0 c 0.426 2.37 1.735 3.817 1.797 3.883 c 0.064 0.086 1.124 1.436 4.469 1.436 c 3.748 0 4.829 -1.439 5.184 -1.912 c 0.026 -0.035 0.047 -0.064 0.066 -0.088 c 0.155 -0.192 0.787 -1.296 0.818 -2.82 c 0.024 -1.187 -0.054 -1.741 -0.055 -1.744 c -0.004 -0.04 -0.11 -0.98 -0.832 -1.611 c -1.198 -1.047 -3.476 -1.244 -3.498 -1.246 c -0.007 -0.001 -0.664 -0.07 -1.691 -0.074 l -0.139 0 c -0.223 0.001 -1.329 0.012 -2.525 0.152 c -0.146 0.017 -0.287 0.035 -0.424 0.055 l -0.557 0.09 c -0.992 0.182 -1.69 0.439 -2.084 0.766 c -0.482 0.399 -0.582 0.942 -0.602 1.115 l -3.035 0 c -0.02 -0.173 -0.12 -0.716 -0.602 -1.115 c -0.394 -0.326 -1.092 -0.584 -2.084 -0.766 l -0.557 -0.09 c -0.137 -0.019 -0.278 -0.038 -0.424 -0.055 c -1.196 -0.14 -2.302 -0.152 -2.525 -0.152 l -0.139 0 z" style="fill:#033243"/>
</svg>
